src/ios-list.svg

<?xml version="1.0" encoding="utf-8"?>
<!-- Generated by IcoMoon.io -->
<!DOCTYPE svg PUBLIC "-//W3C//DTD SVG 1.1//EN" "http://www.w3.org/Graphics/SVG/1.1/DTD/svg11.dtd">
<svg version="1.1" xmlns="http://www.w3.org/2000/svg" xmlns:xlink="http://www.w3.org/1999/xlink" width="512" height="512" viewBox="0 0 512 512">
<path fill="#000000" d="M64 64v384h384v-384h-384zM144 368c-8.836 0-16-7.164-16-16s7.164-16 16-16 16 7.164 16 16-7.164 16-16 16zM144 272c-8.836 0-16-7.164-16-16s7.164-16 16-16 16 7.164 16 16-7.164 16-16 16zM144 176c-8.836 0-16-7.164-16-16s7.164-16 16-16 16 7.164 16 16-7.164 16-16 16zM384 360h-192v-16h192v16zM384 264h-192v-16h192v16zM384 168h-192v-16h192v16z"></path>
</svg>

<?xml version="1.0" encoding="utf-8"?>
<!-- Generator: Adobe Illustrator 16.2.1, SVG Export Plug-In . SVG Version: 6.00 Build 0)  -->
<!DOCTYPE svg PUBLIC "-//W3C//DTD SVG 1.1//EN" "http://www.w3.org/Graphics/SVG/1.1/DTD/svg11.dtd">
<svg version="1.1" id="Layer_1" xmlns="http://www.w3.org/2000/svg" xmlns:xlink="http://www.w3.org/1999/xlink" x="0px" y="0px"
	 width="512px" height="512px" viewBox="0 0 512 512" enable-background="new 0 0 512 512" xml:space="preserve">
<g>
	<path d="M64,64v384h384V64H64z M144,368c-8.836,0-16-7.164-16-16s7.164-16,16-16s16,7.164,16,16S152.836,368,144,368z M144,272
		c-8.836,0-16-7.164-16-16s7.164-16,16-16s16,7.164,16,16S152.836,272,144,272z M144,176c-8.836,0-16-7.164-16-16s7.164-16,16-16
		s16,7.164,16,16S152.836,176,144,176z M384,360H192v-16h192V360z M384,264H192v-16h192V264z M384,168H192v-16h192V168z"/>
</g>
</svg>
